X:1
T:Title
%%score { ( 1 3 5 ) | ( 2 4 ) }
L:1/8
M:4/4
K:Bb
V:1 treble nm="Grand Piano"
V:3 treble 
V:5 treble 
V:2 bass 
V:4 bass 
V:1
 z4 z2[Q:1/4=100] [B,D]>[CE] | [DF]2 [DB]>[Ec] [DB]2 [DF]>[EG] | E2 c>d c2 c>B | A2 C>D E2 A>G | %4
 [DF]6 [B,D]>[CE] | [DF]2 [Fd]>[=E_d] [F=d]2 [Fc]>[FB] |[M:3/4] [GB]2 [EG]>[EG] [GB]2 | %7
[M:1/4] [FA]>G |[M:4/4] F2 F>F A2 B>c |[M:3/4] [DB]6 |[M:1/4] [DF]>[DB] |[M:4/4] d6 z2 | F6 z2 | %13
 [DB]2 [FB]2 [Fd]>[Fd] [Fc]>[FB] | c6 z2 | d6 z2 | F6 z2 | [EG]2 [Ge]2 d>c B>A |[M:3/4] [DB]6 |] %19
V:2
 z4 z2 [B,,F,]>[B,,F,] | [B,,B,]2 [B,,F,]>[B,,F,] [B,,F,]2 [B,,B,]>[B,,B,] | %2
 [F,A,C]2 [F,A,E]>[F,A,E] [F,A,E]2 [F,A,E]>[F,CE] | %3
 [F,CE]2 [E,G,]>[D,G,=B,] [C,G,C]2 [F,C]>[F,A,E] | [B,,B,]6 [B,,F,]>[B,,F,] | %5
 [B,,B,]2 [B,,B,]>[B,,B,] [B,,B,]2 [C,A,]>[D,B,] |[M:3/4] [E,B,]2 [E,B,]>[E,B,] [E,E]2 | %7
[M:1/4] [E,B,]>[E,B,E] |[M:4/4] [F,B,D]2 [F,B,D]>[F,B,D] [F,CE]2 [F,B,D]>[F,A,E] | %9
[M:3/4] [B,,B,]6 |[M:1/4] [B,,B,]>[B,,B,] | %11
[M:4/4] [B,,B,]2 [B,,B,]>[B,,B,] [B,,B,]2 [F,CE]>[F,A,E] | %12
 [B,,B,]2 [B,,G,]2 [B,,F,]2 [B,,B,]>[B,,B,] | [B,,B,]2 [D,B,]2 [B,,B,]>[B,,B,] [C,A,]>[D,B,] | %14
 z4 C2 z2 | [B,,B,]2 [B,,B,]2 [B,,B,]2 (3[F,CE][F,G,E][F,A,E] | %16
 [B,,B,]2 [B,,G,]2 [B,,F,]2 [B,,B,]>[B,,B,] | [E,B,]2 [E,B,]2 [F,B,F]>[F,A,E] [F,B,D]>[F,CE] | %18
[M:3/4] [B,,B,]6 |] %19
V:3
 x8 | x8 | x8 | x8 | x8 | x8 |[M:3/4] x6 |[M:1/4] x2 |[M:4/4] x8 |[M:3/4] x6 |[M:1/4] x2 | %11
[M:4/4] F2 F>F F2 AB/G/ | D2 D2 D2 [DF]>[DF] | x8 | z z/ G/ A>B A>G F>F | F2 F2 z z/ d/ (3ABG | %16
 D2 D2 D2 [DF]>[DF] | x8 |[M:3/4] x6 |] %19
V:4
 x8 | x8 | x8 | x8 | x8 | x8 |[M:3/4] x6 |[M:1/4] x2 |[M:4/4] x8 |[M:3/4] x6 |[M:1/4] x2 | %11
[M:4/4] x8 | x8 | x8 | [F,A,F]>[=E,B,] [F,A,]>G, F,>_E, [D,A,]>[C,A,] | x8 | x8 | x8 |[M:3/4] x6 |] %19
V:5
 x8 | x8 | x8 | x8 | x8 | x8 |[M:3/4] x6 |[M:1/4] x2 |[M:4/4] x8 |[M:3/4] x6 |[M:1/4] x2 | %11
[M:4/4] x8 | x8 | x8 | x8 | z4 F2 z2 | x8 | x8 |[M:3/4] x6 |] %19

